X:87
T:Over the Hills and Far Away. RHu.087
S:R.Hughes MS,1823,Whitchurch,Shrops.
A:Whitchurch, Shropshire
Z:Neil Brookes 2006
M:4/4
L:1/8
Q:1/2=100
R:Air
K:G
A|defe defe|d2B2B3A|defe defe|g2e2e3A|!
defe defe|d2B2g3B|cBAG A2B2|g2e2e3::!
fg|a3b agfe|d2B2B3fg|a3b agfe|g2e2e3fg|!
a3b agfe|d2B2g3B|cBAG A2B2|g2e2e2:|

